arrow-down-bold-outline.svg

<svg fill="currentColor" viewBox="0 0 24 24"><path d="M22 11 12 21 2 11h6V3h8v8zm-10 7 5-5h-3V5h-4v8H7z"/></svg>

<svg  viewBox="0 0 24 24" fill="currentColor"><path  d="M22,11L12,21L2,11H8V3H16V11H22M12,18L17,13H14V5H10V13H7L12,18Z"/></svg>
